X: 198
T: The Croppy Boy
N:"Slow" "collected by Hartnett"
B:O'Neill's 198
Z:Transcribed by henrik.norbeck@mailbox.swipnet.se
M:C
L:1/8
K:G
D2|G2 A>G A B2 G|A2 G>G G2 G/A/B/d/|g4 fdfe|d4 z D G/A/B/d/|
g4 fdfe|d3 d e/d/B/A/ G>A|B3 G A2 G>G|G4 z2||


